svgs/261D-1F3FD.svg

<svg xmlns="http://www.w3.org/2000/svg" xmlns:xlink="http://www.w3.org/1999/xlink" preserveAspectRatio="none" viewBox="0 0 72 72"><defs><path id="a" fill="#CC9970" d="M89.5 10.95Q87.65 9 84.1 9q-3.5 0-5.15 2.35-1.4 2-1.4 5.5V46.4q-.2.5-.6.65-.8.3-1.7-1.5-.75-1.45-2.6-2.15-1.9-.8-4-.35-5.05 1.15-5.75 5.75-.3 2.1-1.5 1.2-1.45-1.7-2.25-2.45-.95-.9-2.5-1.5-2-.75-3.7-.5-2.65.45-4.35 1.75-1.95 1.5-2.35 3.85-.35 2.2-1.5 1.4-.65-.45-1.85-2.2-.8-1.15-2.7-1.65-2.1-.6-4.05.1-5.8 2-6 7.55-.05 2.3-.75 16.25-.15 14.25 2.4 21.65Q40.4 119 65.7 119q14.75 0 24.7-12.05 9-10.85 8.05-22.05-.5-6.35-2.85-12.8-2.15-5.95-2.4-12.85-1.1-32.8-1.8-43.45-.2-3.1-1.9-4.85z"/><path id="b" fill="#99674F" d="M47.55 38.05q-.623.234-1.3-.8-.1.23-.1.55l.9 17.6q-.217-.01-.45-.05-2.5-.4-6.75-.6-1.945-.049-3.8-.05l-2.2-13.9q-.047-.42-.4-.7-.338 1.734-1.45.9-.251-.295-.5-.55-.134.26-.1.6l.4 13.75q-2.192.12-3.45.3l-1.35.2-.2.05h-.15l-.5.15q-.6.2-1.35.55-.45.25-1.15.75-1.05.9-1.7 2.25-.6 1.3-.65 2.6-.065.777 0 1.55l-.45-.05-.35-.1-.35-.2-.35-.35-.4-.55q-.45-1.05-.6-1.6l-.85-4.25q-.3-3.05-.45-4.5l-.55-7.9q-.046-.413-.3-.7-.413 1.167-1.3.55-.209-.145-.5-.45-.2.299-.2.7l-.05 7.95q0 3.05.1 4.65 0 .8.15 2.45l.4 2.4q.25 1.35.75 2.4l.65 1.15.85 1q.35.25 1 .75l1.05.5q.15.05 1.7.4l1.35.05q.984 1.658 2.55 2.95 1.95 1.5 4.25 2.2 2.15.6 4.45.5l3.9-.05q2.35 0 3.25.25.9.2 2.55 1.35 2.85 2 3.5 4.1l.1.4-.1 1.7q-.2 1.1-.7 2.05-.65 1.55-2.1 3.1-.6.65-1.9 1.65l-.75.55-.05.05q-.45.3-.3.9.3.8 1 .55l1-.35q1.5-.55 2.65-1.4 2.1-1.5 3.25-3.55.8-1.35 1.15-2.85l.15-.85.05-1.8q0-.35-.2-1.05-.45-1.75-1.85-3.4-1.3-1.45-2.8-2.6-2.1-1.5-3.7-2-1.5-.4-4.2-.4l-5.65-.1-1.65-.35q-1.55-.45-2.85-1.5t-1.9-2.5q-.7-1.65-.55-3.1.1-1.45 1-2.2l.5-.35.95-.35h.1l.1-.05h.15l.9-.15 3.7-.3q4.2-.15 7.2-.1 3.8 0 6.35.4 3 .5 5.05 1.25 1.85.75 3.6 1.6l3.3 1.55q.55.2.9-.15.35-.2.4-.6.05-.4-.2-.75l-.6-.75q-.95-1.05-2.2-1.95-1.75-1.3-4-2.2-.462-.175-.95-.35l-2.95-18.95q-.082-.33-.3-.6v.45q-.2.5-.6.65z"/><path id="c" fill="#99674F" d="M30.5 55.95V54.1q-.3 1.05-.35 2.25-.05 2.05-.6 13.25.4 1 .95 2.05 1.15 2.1 3 3.5 2.15 1.6 4.65 1.65 2.75 0 4.6-1.15 1.8-1.2 2.9-3.45.6-1.35 1-3.45.45-2.35.45-5l-.05-1.85q-.1-1.35-1.45-1.5-.65-.05-1.1.4-.45.4-.5 1.05l-.1 1.75q-.25 2.65-.65 4.45-.4 1.7-.85 2.6-.65 1.4-1.6 1.95-.95.65-2.65.65-1.45 0-2.65-.9-1.2-.85-2.15-2.35-.75-1.25-1.35-3.15-.95-2.85-1.2-6.25-.15-1.6-.3-4.65z"/></defs><use transform="scale(.5625)" xlink:href="#a"/><use transform="translate(16.5 5.05) scale(.5625)" xlink:href="#b"/><g transform="scale(.5625)"><use xlink:href="#c"/></g></svg>

<svg xmlns="http://www.w3.org/2000/svg" version="1.1" xmlns:xlink="http://www.w3.org/1999/xlink" preserveAspectRatio="none" x="0px" y="0px" width="72px" height="72px" viewBox="0 0 72 72">
<defs>
<g id="Layer0_0_MEMBER_0_FILL">
<path fill="#CC9970" stroke="none" d="
M 89.5 10.95
Q 87.65 9 84.1 9 80.6 9 78.95 11.35 77.55 13.35 77.55 16.85
L 77.55 46.4
Q 77.35 46.9 76.95 47.05 76.15 47.35 75.25 45.55 74.5 44.1 72.65 43.4 70.75 42.6 68.65 43.05 63.6 44.2 62.9 48.8 62.6 50.9 61.4 50 59.95 48.3 59.15 47.55 58.2 46.65 56.65 46.05 54.65 45.3 52.95 45.55 50.3 46 48.6 47.3 46.65 48.8 46.25 51.15 45.9 53.35 44.75 52.55 44.1 52.1 42.9 50.35 42.1 49.2 40.2 48.7 38.1 48.1 36.15 48.8 30.35 50.8 30.15 56.35 30.1 58.65 29.4 72.6 29.25 86.85 31.8 94.25 40.4 119 65.7 119 80.45 119 90.4 106.95 99.4 96.1 98.45 84.9 97.95 78.55 95.6 72.1 93.45 66.15 93.2 59.25 92.1 26.45 91.4 15.8 91.2 12.7 89.5 10.95 Z"/>
</g>

<g id="An_261D_SVG_Layer_1__Clip_Group__1_0_Layer2_0_FILL">
<path fill="#99674F" stroke="none" d="
M 47.55 38.05
Q 46.9271484375 38.28359375 46.25 37.25 46.15 37.4794921875 46.15 37.8
L 47.05 55.4
Q 46.8326171875 55.389453125 46.6 55.35 44.1 54.95 39.85 54.75 37.9048828125 54.7013671875 36.05 54.7
L 33.85 40.8
Q 33.8033203125 40.3796875 33.45 40.1 33.1125 41.834375 32 41 31.748828125 40.70546875 31.5 40.45 31.366015625 40.7099609375 31.4 41.05
L 31.8 54.8
Q 29.6083984375 54.9203125 28.35 55.1
L 27 55.3 26.8 55.35 26.65 55.35 26.15 55.5
Q 25.55 55.7 24.8 56.05 24.35 56.3 23.65 56.8 22.6 57.7 21.95 59.05 21.35 60.35 21.3 61.65 21.23515625 62.426953125 21.3 63.2
L 20.85 63.15 20.5 63.05 20.15 62.85 19.8 62.5 19.4 61.95
Q 18.95 60.9 18.8 60.35
L 17.95 56.1
Q 17.65 53.05 17.5 51.6
L 16.95 43.7
Q 16.9041015625 43.287109375 16.65 43 16.2365234375 44.1666015625 15.35 43.55 15.1412109375 43.40546875 14.85 43.1 14.65 43.398828125 14.65 43.8
L 14.6 51.75
Q 14.6 54.8 14.7 56.4 14.7 57.2 14.85 58.85
L 15.25 61.25
Q 15.5 62.6 16 63.65
L 16.65 64.8 17.5 65.8
Q 17.85 66.05 18.5 66.55
L 19.55 67.05
Q 19.7 67.1 21.25 67.45
L 22.6 67.5
Q 23.5837890625 69.1578125 25.15 70.45 27.1 71.95 29.4 72.65 31.55 73.25 33.85 73.15
L 37.75 73.1
Q 40.1 73.1 41 73.35 41.9 73.55 43.55 74.7 46.4 76.7 47.05 78.8
L 47.15 79.2 47.05 80.9
Q 46.85 82 46.35 82.95 45.7 84.5 44.25 86.05 43.65 86.7 42.35 87.7
L 41.6 88.25 41.55 88.3
Q 41.1 88.6 41.25 89.2 41.55 90 42.25 89.75
L 43.25 89.4
Q 44.75 88.85 45.9 88 48 86.5 49.15 84.45 49.95 83.1 50.3 81.6
L 50.45 80.75 50.5 78.95
Q 50.5 78.6 50.3 77.9 49.85 76.15 48.45 74.5 47.15 73.05 45.65 71.9 43.55 70.4 41.95 69.9 40.45 69.5 37.75 69.5
L 32.1 69.4 30.45 69.05
Q 28.9 68.6 27.6 67.55 26.3 66.5 25.7 65.05 25 63.4 25.15 61.95 25.25 60.5 26.15 59.75
L 26.65 59.4 27.6 59.05 27.7 59.05 27.8 59 27.95 59 28.85 58.85 32.55 58.55
Q 36.75 58.4 39.75 58.45 43.55 58.45 46.1 58.85 49.1 59.35 51.15 60.1 53 60.85 54.75 61.7
L 58.05 63.25
Q 58.6 63.45 58.95 63.1 59.3 62.9 59.35 62.5 59.4 62.1 59.15 61.75
L 58.55 61
Q 57.6 59.95 56.35 59.05 54.6 57.75 52.35 56.85 51.8884765625 56.674609375 51.4 56.5
L 51.4 56.5 48.45 37.55
Q 48.3677734375 37.2208984375 48.15 36.95
L 48.15 37.4
Q 47.95 37.9 47.55 38.05 Z"/>
</g>

<g id="Layer0_0_MEMBER_1_MEMBER_1_FILL">
<path fill="#99674F" stroke="none" d="
M 30.5 55.95
L 30.5 54.1
Q 30.2 55.15 30.15 56.35 30.1 58.4 29.55 69.6 29.95 70.6 30.5 71.65 31.65 73.75 33.5 75.15 35.65 76.75 38.15 76.8 40.9 76.8 42.75 75.65 44.55 74.45 45.65 72.2 46.25 70.85 46.65 68.75 47.1 66.4 47.1 63.75
L 47.05 61.9
Q 46.95 60.55 45.6 60.4 44.95 60.35 44.5 60.8 44.05 61.2 44 61.85
L 43.9 63.6
Q 43.65 66.25 43.25 68.05 42.85 69.75 42.4 70.65 41.75 72.05 40.8 72.6 39.85 73.25 38.15 73.25 36.7 73.25 35.5 72.35 34.3 71.5 33.35 70 32.6 68.75 32 66.85 31.05 64 30.8 60.6 30.65 59 30.5 55.95 Z"/>
</g>
</defs>

<g id="Layer_1">
<g transform="matrix( 0.5625, 0, 0, 0.5625, 0,0) ">
<use xlink:href="#Layer0_0_MEMBER_0_FILL"/>
</g>

<g transform="matrix( 0.5625, 0, 0, 0.5625, 16.5,5.05) ">
<g id="Camada_1"/>

<g transform="matrix( 1, 0, 0, 1, 0,0) ">
<use xlink:href="#An_261D_SVG_Layer_1__Clip_Group__1_0_Layer2_0_FILL"/>
</g>

<g id="Camada_4"/>
</g>

<g transform="matrix( 0.5625, 0, 0, 0.5625, 0,0) ">
<use xlink:href="#Layer0_0_MEMBER_1_MEMBER_1_FILL"/>
</g>
</g>
</svg>
